avogadro/qtplugins/templatetool/centers/2-lin.svg

<svg xmlns="http://www.w3.org/2000/svg" xmlns:xlink="http://www.w3.org/1999/xlink" width="34" height="19" viewBox="0 0 34 19" style="background-color:#ffffff00" version="1.1"><path fill="#000" stroke="none" d="M 3962,3156 L 3962,3144 L 4250,3144 L 4250,3156 L 3962,3156 Z" transform="matrix(0.05 0 0 0.05 -181 -148)"/><path fill="#000" stroke="none" d="M 3674,3156 L 3674,3144 L 3962,3144 L 3962,3156 L 3674,3156 Z" transform="matrix(0.05 0 0 0.05 -181 -148)"/><path fill="#107f80" stroke="none" d="M 3832.4,3150 A 129.6,129.6 0 1 0 4091.6,3150A 129.6,129.6 0 1 0 3832.4,3150Z" transform="matrix(0.05 0 0 0.05 -181 -148)"/><path fill="#1e8687" stroke="none" d="M 3833.9,3147.98 A 126.073,126.073 0 1 0 4086.05,3147.98A 126.073,126.073 0 1 0 3833.9,3147.98Z" transform="matrix(0.05 0 0 0.05 -181 -148)"/><path fill="#2c8e8f" stroke="none" d="M 3835.4,3145.95 A 122.545,122.545 0 1 0 4080.5,3145.95A 122.545,122.545 0 1 0 3835.4,3145.95Z" transform="matrix(0.05 0 0 0.05 -181 -148)"/><path fill="#3a9596" stroke="none" d="M 3836.91,3143.93 A 119.018,119.018 0 1 0 4074.94,3143.93A 119.018,119.018 0 1 0 3836.91,3143.93Z" transform="matrix(0.05 0 0 0.05 -181 -148)"/><path fill="#489d9d" stroke="none" d="M 3838.41,3141.9 A 115.491,115.491 0 1 0 4069.39,3141.9A 115.491,115.491 0 1 0 3838.41,3141.9Z" transform="matrix(0.05 0 0 0.05 -181 -148)"/><path fill="#54a3a4" stroke="none" d="M 3839.91,3139.88 A 111.963,111.963 0 1 0 4063.84,3139.88A 111.963,111.963 0 1 0 3839.91,3139.88Z" transform="matrix(0.05 0 0 0.05 -181 -148)"/><path fill="#61aaab" stroke="none" d="M 3841.41,3137.85 A 108.436,108.436 0 1 0 4058.29,3137.85A 108.436,108.436 0 1 0 3841.41,3137.85Z" transform="matrix(0.05 0 0 0.05 -181 -148)"/><path fill="#6db0b1" stroke="none" d="M 3842.92,3135.83 A 104.909,104.909 0 1 0 4052.73,3135.83A 104.909,104.909 0 1 0 3842.92,3135.83Z" transform="matrix(0.05 0 0 0.05 -181 -148)"/><path fill="#78b7b7" stroke="none" d="M 3844.42,3133.8 A 101.381,101.381 0 1 0 4047.18,3133.8A 101.381,101.381 0 1 0 3844.42,3133.8Z" transform="matrix(0.05 0 0 0.05 -181 -148)"/><path fill="#83bcbd" stroke="none" d="M 3845.92,3131.78 A 97.8538,97.8538 0 1 0 4041.63,3131.78A 97.8538,97.8538 0 1 0 3845.92,3131.78Z" transform="matrix(0.05 0 0 0.05 -181 -148)"/><path fill="#8ec2c2" stroke="none" d="M 3847.42,3129.75 A 94.3265,94.3265 0 1 0 4036.08,3129.75A 94.3265,94.3265 0 1 0 3847.42,3129.75Z" transform="matrix(0.05 0 0 0.05 -181 -148)"/><path fill="#98c7c8" stroke="none" d="M 3848.93,3127.73 A 90.7991,90.7991 0 1 0 4030.52,3127.73A 90.7991,90.7991 0 1 0 3848.93,3127.73Z" transform="matrix(0.05 0 0 0.05 -181 -148)"/><path fill="#a1cdcd" stroke="none" d="M 3850.43,3125.7 A 87.2718,87.2718 0 1 0 4024.97,3125.7A 87.2718,87.2718 0 1 0 3850.43,3125.7Z" transform="matrix(0.05 0 0 0.05 -181 -148)"/><path fill="#aad1d2" stroke="none" d="M 3851.93,3123.68 A 83.7444,83.7444 0 1 0 4019.42,3123.68A 83.7444,83.7444 0 1 0 3851.93,3123.68Z" transform="matrix(0.05 0 0 0.05 -181 -148)"/><path fill="#b3d6d6" stroke="none" d="M 3853.43,3121.65 A 80.2171,80.2171 0 1 0 4013.87,3121.65A 80.2171,80.2171 0 1 0 3853.43,3121.65Z" transform="matrix(0.05 0 0 0.05 -181 -148)"/><path fill="#bbdadb" stroke="none" d="M 3854.94,3119.63 A 76.6898,76.6898 0 1 0 4008.31,3119.63A 76.6898,76.6898 0 1 0 3854.94,3119.63Z" transform="matrix(0.05 0 0 0.05 -181 -148)"/><path fill="#c3dfdf" stroke="none" d="M 3856.44,3117.6 A 73.1624,73.1624 0 1 0 4002.76,3117.6A 73.1624,73.1624 0 1 0 3856.44,3117.6Z" transform="matrix(0.05 0 0 0.05 -181 -148)"/><path fill="#cae2e3" stroke="none" d="M 3857.94,3115.58 A 69.6351,69.6351 0 1 0 3997.21,3115.58A 69.6351,69.6351 0 1 0 3857.94,3115.58Z" transform="matrix(0.05 0 0 0.05 -181 -148)"/><path fill="#d1e6e6" stroke="none" d="M 3859.44,3113.55 A 66.1077,66.1077 0 1 0 3991.66,3113.55A 66.1077,66.1077 0 1 0 3859.44,3113.55Z" transform="matrix(0.05 0 0 0.05 -181 -148)"/><path fill="#d7e9ea" stroke="none" d="M 3860.94,3111.53 A 62.5804,62.5804 0 1 0 3986.11,3111.53A 62.5804,62.5804 0 1 0 3860.94,3111.53Z" transform="matrix(0.05 0 0 0.05 -181 -148)"/><path fill="#ddeded" stroke="none" d="M 3862.45,3109.5 A 59.053,59.053 0 1 0 3980.55,3109.5A 59.053,59.053 0 1 0 3862.45,3109.5Z" transform="matrix(0.05 0 0 0.05 -181 -148)"/><path fill="#e2efef" stroke="none" d="M 3863.95,3107.48 A 55.5257,55.5257 0 1 0 3975,3107.48A 55.5257,55.5257 0 1 0 3863.95,3107.48Z" transform="matrix(0.05 0 0 0.05 -181 -148)"/><path fill="#e7f2f2" stroke="none" d="M 3865.45,3105.45 A 51.9984,51.9984 0 1 0 3969.45,3105.45A 51.9984,51.9984 0 1 0 3865.45,3105.45Z" transform="matrix(0.05 0 0 0.05 -181 -148)"/><path fill="#ecf4f4" stroke="none" d="M 3866.95,3103.43 A 48.471,48.471 0 1 0 3963.9,3103.43A 48.471,48.471 0 1 0 3866.95,3103.43Z" transform="matrix(0.05 0 0 0.05 -181 -148)"/><path fill="#f0f7f7" stroke="none" d="M 3868.46,3101.4 A 44.9437,44.9437 0 1 0 3958.34,3101.4A 44.9437,44.9437 0 1 0 3868.46,3101.4Z" transform="matrix(0.05 0 0 0.05 -181 -148)"/><path fill="#f3f8f8" stroke="none" d="M 3869.96,3099.38 A 41.4163,41.4163 0 1 0 3952.79,3099.38A 41.4163,41.4163 0 1 0 3869.96,3099.38Z" transform="matrix(0.05 0 0 0.05 -181 -148)"/><path fill="#f6fafa" stroke="none" d="M 3871.46,3097.35 A 37.889,37.889 0 1 0 3947.24,3097.35A 37.889,37.889 0 1 0 3871.46,3097.35Z" transform="matrix(0.05 0 0 0.05 -181 -148)"/><path fill="#f9fbfb" stroke="none" d="M 3872.96,3095.33 A 34.3616,34.3616 0 1 0 3941.69,3095.33A 34.3616,34.3616 0 1 0 3872.96,3095.33Z" transform="matrix(0.05 0 0 0.05 -181 -148)"/><path fill="#fbfdfd" stroke="none" d="M 3874.47,3093.3 A 30.8343,30.8343 0 1 0 3936.13,3093.3A 30.8343,30.8343 0 1 0 3874.47,3093.3Z" transform="matrix(0.05 0 0 0.05 -181 -148)"/><path fill="#fcfdfd" stroke="none" d="M 3875.97,3091.28 A 27.3069,27.3069 0 1 0 3930.58,3091.28A 27.3069,27.3069 0 1 0 3875.97,3091.28Z" transform="matrix(0.05 0 0 0.05 -181 -148)"/><path fill="#fefefe" stroke="none" d="M 3877.47,3089.25 A 23.7796,23.7796 0 1 0 3925.03,3089.25A 23.7796,23.7796 0 1 0 3877.47,3089.25Z" transform="matrix(0.05 0 0 0.05 -181 -148)"/><path fill="#fefefe" stroke="none" d="M 3878.97,3087.23 A 20.2523,20.2523 0 1 0 3919.48,3087.23A 20.2523,20.2523 0 1 0 3878.97,3087.23Z" transform="matrix(0.05 0 0 0.05 -181 -148)"/><path fill="none" stroke="#107f80" stroke-width="12" d="M 3832.4,3150 A 129.6,129.6 0 1 0 4091.6,3150A 129.6,129.6 0 1 0 3832.4,3150Z" transform="matrix(0.05 0 0 0.05 -181 -148)"/></svg>

<svg height="19" viewBox="0 0 34 19" width="34" xmlns="http://www.w3.org/2000/svg"><g transform="matrix(.05 0 0 .05 -181 -148)"><path d="m3962 3156v-12h288v12z"/><path d="m3674 3156v-12h288v12z"/><path d="m3832.4 3150a129.6 129.6 0 1 0 259.2 0 129.6 129.6 0 1 0 -259.2 0z" fill="#107f80"/><path d="m3833.9 3147.98a126.073 126.073 0 1 0 252.15 0 126.073 126.073 0 1 0 -252.15 0z" fill="#1e8687"/><path d="m3835.4 3145.95a122.545 122.545 0 1 0 245.1 0 122.545 122.545 0 1 0 -245.1 0z" fill="#2c8e8f"/><path d="m3836.91 3143.93a119.018 119.018 0 1 0 238.03 0 119.018 119.018 0 1 0 -238.03 0z" fill="#3a9596"/><path d="m3838.41 3141.9a115.491 115.491 0 1 0 230.98 0 115.491 115.491 0 1 0 -230.98 0z" fill="#489d9d"/><path d="m3839.91 3139.88a111.963 111.963 0 1 0 223.93 0 111.963 111.963 0 1 0 -223.93 0z" fill="#54a3a4"/><path d="m3841.41 3137.85a108.436 108.436 0 1 0 216.88 0 108.436 108.436 0 1 0 -216.88 0z" fill="#61aaab"/><path d="m3842.92 3135.83a104.909 104.909 0 1 0 209.81 0 104.909 104.909 0 1 0 -209.81 0z" fill="#6db0b1"/><path d="m3844.42 3133.8a101.381 101.381 0 1 0 202.76 0 101.381 101.381 0 1 0 -202.76 0z" fill="#78b7b7"/><path d="m3845.92 3131.78a97.854 97.854 0 1 0 195.71 0 97.854 97.854 0 1 0 -195.71 0z" fill="#83bcbd"/><path d="m3847.42 3129.75a94.327 94.327 0 1 0 188.66 0 94.327 94.327 0 1 0 -188.66 0z" fill="#8ec2c2"/><path d="m3848.93 3127.73a90.799 90.799 0 1 0 181.59 0 90.799 90.799 0 1 0 -181.59 0z" fill="#98c7c8"/><path d="m3850.43 3125.7a87.272 87.272 0 1 0 174.54 0 87.272 87.272 0 1 0 -174.54 0z" fill="#a1cdcd"/><path d="m3851.93 3123.68a83.744 83.744 0 1 0 167.49 0 83.744 83.744 0 1 0 -167.49 0z" fill="#aad1d2"/><path d="m3853.43 3121.65a80.217 80.217 0 1 0 160.44 0 80.217 80.217 0 1 0 -160.44 0z" fill="#b3d6d6"/><path d="m3854.94 3119.63a76.69 76.69 0 1 0 153.37 0 76.69 76.69 0 1 0 -153.37 0z" fill="#bbdadb"/><path d="m3856.44 3117.6a73.162 73.162 0 1 0 146.32 0 73.162 73.162 0 1 0 -146.32 0z" fill="#c3dfdf"/><path d="m3857.94 3115.58a69.635 69.635 0 1 0 139.27 0 69.635 69.635 0 1 0 -139.27 0z" fill="#cae2e3"/><path d="m3859.44 3113.55a66.108 66.108 0 1 0 132.22 0 66.108 66.108 0 1 0 -132.22 0z" fill="#d1e6e6"/><path d="m3860.94 3111.53a62.58 62.58 0 1 0 125.17 0 62.58 62.58 0 1 0 -125.17 0z" fill="#d7e9ea"/><path d="m3862.45 3109.5a59.053 59.053 0 1 0 118.1 0 59.053 59.053 0 1 0 -118.1 0z" fill="#ddeded"/><path d="m3863.95 3107.48a55.526 55.526 0 1 0 111.05 0 55.526 55.526 0 1 0 -111.05 0z" fill="#e2efef"/><path d="m3865.45 3105.45a51.998 51.998 0 1 0 104 0 51.998 51.998 0 1 0 -104 0z" fill="#e7f2f2"/><path d="m3866.95 3103.43a48.471 48.471 0 1 0 96.95 0 48.471 48.471 0 1 0 -96.95 0z" fill="#ecf4f4"/><path d="m3868.46 3101.4a44.944 44.944 0 1 0 89.88 0 44.944 44.944 0 1 0 -89.88 0z" fill="#f0f7f7"/><path d="m3869.96 3099.38a41.416 41.416 0 1 0 82.83 0 41.416 41.416 0 1 0 -82.83 0z" fill="#f3f8f8"/><path d="m3871.46 3097.35a37.889 37.889 0 1 0 75.78 0 37.889 37.889 0 1 0 -75.78 0z" fill="#f6fafa"/><path d="m3872.96 3095.33a34.362 34.362 0 1 0 68.73 0 34.362 34.362 0 1 0 -68.73 0z" fill="#f9fbfb"/><path d="m3874.47 3093.3a30.834 30.834 0 1 0 61.66 0 30.834 30.834 0 1 0 -61.66 0z" fill="#fbfdfd"/><path d="m3875.97 3091.28a27.307 27.307 0 1 0 54.61 0 27.307 27.307 0 1 0 -54.61 0z" fill="#fcfdfd"/><path d="m3877.47 3089.25a23.78 23.78 0 1 0 47.56 0 23.78 23.78 0 1 0 -47.56 0z" fill="#fefefe"/><path d="m3878.97 3087.23a20.252 20.252 0 1 0 40.51 0 20.252 20.252 0 1 0 -40.51 0z" fill="#fefefe"/><path d="m3832.4 3150a129.6 129.6 0 1 0 259.2 0 129.6 129.6 0 1 0 -259.2 0z" fill="none" stroke="#107f80" stroke-width="12"/></g></svg>
